X:24
T:Bourree des grandes poteries
I:last changed 14/2/2016
F:http://www.campin.me.uk/Music/Edinbal.abc
Z:Jack Campin, 2014
I:last changed 14/2/2016
F:http://www.campin.me.uk/Music/YoupNannetteD.abc
S:p22, p1000211.jpg
M:3/8
L:1/8
Q:1/4=120
K:G
 B/c/| dBd|d/B/GB   |   dBd|   d2   \
 A/B/| cAA|A2   G/A/|   BGG|[1 G2 :|\
                            [2 G  ||
FE   |:D2E|D2   E   |   DGA|   B3  |\
       AGA|GFE      |[1 DED|   B2G:|\
                     [2 DBA|   G2 |]

